build/images/partners/7.svg

<svg width="234" height="100" viewBox="0 0 234 100" fill="none" xmlns="http://www.w3.org/2000/svg">
<path fill-rule="evenodd" clip-rule="evenodd" d="M25.1005 30.1061C24.727 30.3125 13.3113 41.8458 13.1198 42.2103C12.8905 42.6465 12.9976 43.21 13.3785 43.5712L13.6736 43.851L26.2601 43.8816L38.8467 43.9121V56.5593V69.2067L39.1373 69.5554C39.4789 69.9652 39.9391 70.0971 40.4083 69.9198C40.7903 69.7755 51.9439 58.5954 52.3396 57.9603L52.5928 57.5538V44.4897C52.5928 29.7838 52.6686 30.9937 51.7065 30.351L51.2293 30.0321L38.2799 30.0055C29.0693 29.9866 25.2642 30.0156 25.1005 30.1061ZM93.293 32.8808C90.7035 33.3513 88.7085 35.0431 87.9093 37.4465C87.6639 38.1845 87.6199 38.5282 87.6215 39.691C87.6251 42.2 88.1499 43.68 89.5866 45.233C90.0347 45.7174 91.4191 46.944 92.6631 47.9591C95.2414 50.0626 96.1414 50.9318 96.4868 51.6523C96.7919 52.2885 96.8969 53.3726 96.7092 53.947C96.3627 55.0066 95.2741 55.6409 94.2136 55.401C93.0597 55.1399 92.5667 54.4185 92.4886 52.8763C92.4018 51.1606 92.6811 51.3411 90.1135 51.3411C88.5418 51.3411 87.8553 51.3818 87.7575 51.4805C87.5639 51.6759 87.5821 53.989 87.7848 54.9544C88.0333 56.138 88.6776 57.3122 89.5612 58.1922C90.9049 59.5302 92.3415 60.0669 94.5788 60.0669C96.8646 60.0669 98.4457 59.4538 99.8855 58.0092C101.189 56.701 101.768 55.2541 101.768 53.3047C101.768 51.8935 101.497 50.7502 100.84 49.3952C100.357 48.399 100.092 48.0241 99.2215 47.1043C98.619 46.4682 97.3726 45.3808 96.2644 44.5246C93.0396 42.0331 92.4472 41.289 92.4533 39.7369C92.4604 37.919 94.0447 36.8411 95.4923 37.6692C96.2092 38.0794 96.494 38.7638 96.5793 40.2815L96.6494 41.5285L98.853 41.56C101.648 41.5999 101.48 41.7215 101.39 39.7329C101.312 37.9788 100.968 36.743 100.263 35.6764C99.4325 34.4215 98.0806 33.4533 96.5909 33.0471C95.7856 32.8275 94.0643 32.7406 93.293 32.8808ZM128.398 32.9373C126.42 33.3053 124.472 34.6524 123.647 36.2209C122.848 37.742 122.874 37.3869 122.894 46.4254C122.91 53.6822 122.933 54.6479 123.106 55.251C123.699 57.326 125.197 58.8567 127.439 59.68C128.216 59.9653 128.423 59.9899 130.066 59.9911C131.591 59.9923 131.965 59.9552 132.654 59.7349C134.692 59.083 136.283 57.6018 136.996 55.6913C137.254 55.0005 137.255 54.9819 137.287 46.7581C137.309 41.0976 137.279 38.3246 137.192 37.9022C136.727 35.6391 134.751 33.6921 132.272 33.0537C131.223 32.7838 129.501 32.732 128.398 32.9373ZM63.7162 33.3649C63.6105 33.4716 63.5782 36.5294 63.5782 46.4208C63.5782 58.2598 63.5939 59.3532 63.7676 59.5284C63.9383 59.7008 64.3694 59.7152 68.11 59.6743C71.6963 59.6349 72.3492 59.6006 72.8956 59.4221C75.2144 58.6642 76.8921 56.9852 77.4358 54.8781C77.6421 54.0783 77.6798 50.3282 77.4899 49.4965C77.1898 48.1822 76.0698 46.6852 74.9856 46.1493L74.4874 45.9031L74.907 45.7021C75.5443 45.3968 76.2929 44.5701 76.715 43.7053L77.0942 42.9284L77.1299 40.8207C77.1582 39.1521 77.1262 38.5588 76.9764 37.9725C76.407 35.7434 74.5656 33.9411 72.3086 33.404C71.345 33.1748 63.938 33.141 63.7162 33.3649ZM79.9711 33.4977C79.8145 33.7392 79.7979 35.2202 79.8247 46.5713C79.8543 59.0907 79.8599 59.3762 80.0782 59.5374C80.2527 59.6662 80.7852 59.7022 82.5161 59.7022C84.6741 59.7022 84.7352 59.6955 84.9097 59.444C85.0692 59.2143 85.0888 57.7904 85.0888 46.4639C85.0888 35.1373 85.0692 33.7134 84.9097 33.4837C84.7349 33.2316 84.6768 33.2255 82.4392 33.2255C80.1626 33.2255 80.1467 33.2273 79.9711 33.4977ZM115.244 33.3781C115.157 33.485 115.109 36.5377 115.086 43.5682C115.051 54.1979 115.065 53.9268 114.534 54.672C114.217 55.1157 113.532 55.4375 112.889 55.4436C112.08 55.4514 111.561 55.2533 110.776 54.6384C110.39 54.3358 110.018 54.1329 109.884 54.1525C109.753 54.1716 109.187 54.7603 108.575 55.5119C107.564 56.7532 107.5 56.8641 107.56 57.2538C107.609 57.5678 107.789 57.8269 108.295 58.3087C109.578 59.5305 111.027 60.0505 113.148 60.0505C116.48 60.0505 119.031 58.2821 120.016 55.2894C120.213 54.6932 120.229 53.957 120.261 44.2144C120.292 34.9198 120.277 33.7478 120.117 33.5018C119.938 33.2262 119.932 33.2255 117.654 33.2255C115.908 33.2255 115.34 33.2614 115.244 33.3781ZM140.085 33.3855C139.988 33.5034 139.962 36.3597 139.985 44.281L140.016 55.0167L140.523 56.053C141.436 57.9185 143.273 59.3988 145.263 59.8723C146.205 60.0966 148.09 60.0966 149.033 59.8723C151.022 59.3988 152.859 57.9185 153.772 56.053L154.28 55.0167L154.311 44.281C154.334 36.3597 154.307 33.5034 154.21 33.3855C154.107 33.2595 153.595 33.2255 151.799 33.2255C149.573 33.2255 149.515 33.2317 149.34 33.4837C149.181 33.7123 149.161 34.8712 149.161 43.6601C149.161 50.8607 149.124 53.7021 149.027 54.0292C148.847 54.6372 148.232 55.2514 147.644 55.4112C146.709 55.6654 145.732 55.1171 145.313 54.1028C145.157 53.7241 145.135 52.4423 145.135 43.6729C145.135 37.003 145.095 33.6001 145.016 33.4501C144.904 33.2394 144.752 33.2255 142.556 33.2255C140.71 33.2255 140.189 33.2592 140.085 33.3855ZM157.543 33.4176C157.411 33.5778 157.385 35.7437 157.385 46.491C157.385 59.1083 157.39 59.3759 157.609 59.5374C157.783 59.6662 158.316 59.7022 160.046 59.7022C162.205 59.7022 162.266 59.6955 162.44 59.444C162.595 59.2204 162.619 58.532 162.619 54.2764V49.367H163.421H164.222L164.508 50.325C164.665 50.8519 165.313 53.1065 165.949 55.335C166.584 57.5636 167.163 59.4578 167.234 59.5446C167.335 59.6676 167.861 59.7022 169.627 59.7022C172.014 59.7022 172.167 59.67 172.167 59.1662C172.167 59.0248 171.499 56.723 170.683 54.0509C169.867 51.379 169.137 48.9783 169.06 48.7161L168.919 48.2394L169.836 47.3226C170.939 46.2184 171.516 45.1454 171.765 43.7307C171.973 42.5517 171.976 39.9368 171.77 38.7694C171.314 36.1907 169.315 34.0706 166.707 33.4015C166.157 33.2603 165.199 33.2255 161.861 33.2255C158.132 33.2255 157.685 33.2454 157.543 33.4176ZM174.835 33.3649C174.73 33.4716 174.697 36.5433 174.697 46.483C174.697 59.1959 174.702 59.4642 174.92 59.582C175.049 59.6517 175.986 59.7022 177.149 59.7022C178.827 59.7022 179.18 59.6724 179.304 59.521C179.465 59.326 179.467 54.1147 179.31 47.4509C179.268 45.6626 179.245 44.1811 179.258 44.1587C179.272 44.1362 179.34 44.3453 179.409 44.6232C179.479 44.901 180.598 48.2899 181.897 52.154C183.756 57.6834 184.32 59.2352 184.546 59.4409C184.822 59.6918 184.916 59.7022 186.948 59.7022C189.003 59.7022 189.068 59.6949 189.242 59.444C189.402 59.2143 189.421 57.7833 189.421 46.3883C189.421 34.9088 189.403 33.5717 189.241 33.408C189.089 33.2554 188.714 33.2255 186.944 33.2255C184.9 33.2255 184.824 33.234 184.697 33.4738C184.572 33.7087 184.605 41.3896 184.757 47.6251C184.807 49.6387 184.805 49.6505 184.634 48.9025C184.331 47.5772 179.625 33.5931 179.42 33.4054C179.257 33.2567 178.855 33.2255 177.098 33.2255C175.599 33.2255 174.933 33.2665 174.835 33.3649ZM196.85 33.3785C196.686 33.4995 196.079 36.2201 193.952 46.3555C192.471 53.4087 191.288 59.2971 191.321 59.4409C191.381 59.7011 191.391 59.7022 193.68 59.7022C195.736 59.7022 196 59.6802 196.184 59.494C196.331 59.3459 196.45 58.8679 196.597 57.8392C196.711 57.0436 196.831 56.2751 196.863 56.1313C196.923 55.8721 196.94 55.87 199.025 55.87H201.126L201.387 57.5706C201.58 58.8296 201.704 59.3278 201.864 59.4891C202.062 59.6899 202.259 59.7046 204.349 59.6756L206.618 59.6441L206.648 59.2377C206.665 59.0141 205.489 53.1355 204.034 46.174C202.013 36.5001 201.343 33.4825 201.193 33.3712C200.907 33.1601 197.137 33.1664 196.85 33.3785ZM208.75 33.4501C208.67 33.6011 208.631 37.8802 208.631 46.4963C208.631 58.77 208.64 59.326 208.842 59.51C209.032 59.6835 209.614 59.7022 214.809 59.7022C220.024 59.7022 220.581 59.6841 220.724 59.5101C220.965 59.217 220.952 55.3256 220.71 55.1708C220.611 55.108 219.092 55.0599 217.172 55.0589L213.808 55.0571V44.3659C213.808 37.2183 213.768 33.6003 213.689 33.4501C213.577 33.2394 213.425 33.2255 211.22 33.2255C209.014 33.2255 208.862 33.2394 208.75 33.4501ZM131.265 37.7983C132.121 38.4572 132.075 37.9927 132.11 46.3477L132.142 53.8378L131.88 54.3595C131.084 55.9468 128.9 55.8226 128.262 54.1539C128.067 53.6445 128.053 53.0909 128.053 46.3477C128.053 39.1396 128.054 39.0868 128.3 38.6254C128.784 37.7174 129.331 37.3876 130.259 37.445C130.692 37.4718 130.966 37.5681 131.265 37.7983ZM71.093 38.029C71.5717 38.2309 72.0481 38.8012 72.2004 39.3548C72.3617 39.9411 72.352 42.0921 72.1855 42.6529C72.0237 43.1982 71.4527 43.7351 70.8569 43.9021C70.618 43.9691 69.9696 44.0242 69.416 44.0245L68.4094 44.0252V40.9479V37.8706H69.5634C70.2779 37.8706 70.8605 37.931 71.093 38.029ZM165.414 38.0275C165.908 38.2358 166.502 38.9337 166.59 39.4103C166.629 39.6213 166.645 40.6585 166.625 41.7153C166.589 43.5716 166.577 43.6526 166.282 44.1031C165.833 44.7872 165.324 44.9855 163.856 45.0477L162.619 45.1002V41.4853V37.8706H163.831C164.588 37.8706 165.182 37.9294 165.414 38.0275ZM199.884 47.7675C200.203 49.857 200.464 51.6205 200.464 51.6863C200.464 51.7616 199.935 51.8056 199.026 51.8056C197.658 51.8056 197.588 51.7943 197.588 51.5697C197.588 51.44 197.868 49.4672 198.21 47.1859C198.552 44.9046 198.872 42.6724 198.92 42.2253L199.009 41.4124L199.157 42.6904C199.238 43.3932 199.565 45.6779 199.884 47.7675ZM71.2489 48.4314C71.5515 48.5701 71.8503 48.8354 72.0541 49.146C72.3776 49.6395 72.378 49.6421 72.378 51.631C72.378 53.62 72.3776 53.6225 72.0541 54.1164C71.5747 54.848 71.0401 55.0515 69.5885 55.0546L68.4094 55.0571V51.6314V48.2057L69.5885 48.2083C70.4971 48.2103 70.878 48.2615 71.2489 48.4314Z" fill="white"/>
</svg>

<svg width="234" height="100" fill="none" xmlns="http://www.w3.org/2000/svg"><path fill-rule="evenodd" clip-rule="evenodd" d="M25.1 30.106c-.373.206-11.789 11.74-11.98 12.104-.23.437-.122 1 .259 1.361l.295.28 12.586.03 12.587.031v25.295l.29.348c.342.41.802.542 1.271.365.382-.145 11.536-11.325 11.932-11.96l.253-.406V44.49c0-14.706.076-13.496-.887-14.139l-.477-.319-12.95-.026c-9.21-.02-13.015.01-13.179.1zm68.193 2.775c-2.59.47-4.585 2.162-5.384 4.566-.245.737-.29 1.081-.288 2.244.004 2.509.529 3.989 1.966 5.542.448.484 1.832 1.711 3.076 2.726 2.578 2.104 3.478 2.973 3.824 3.693.305.636.41 1.72.222 2.295-.346 1.06-1.435 1.694-2.495 1.454-1.154-.261-1.647-.983-1.725-2.525-.087-1.715.192-1.535-2.376-1.535-1.571 0-2.258.04-2.356.14-.193.195-.175 2.508.028 3.473.248 1.184.893 2.358 1.776 3.238 1.344 1.338 2.78 1.875 5.018 1.875 2.286 0 3.867-.613 5.306-2.058 1.304-1.308 1.883-2.755 1.883-4.704 0-1.411-.271-2.555-.928-3.91-.483-.996-.748-1.37-1.618-2.29-.603-.637-1.85-1.724-2.958-2.58-3.224-2.492-3.817-3.236-3.81-4.788.006-1.818 1.59-2.896 3.038-2.068.717.41 1.002 1.095 1.087 2.613l.07 1.247 2.204.031c2.795.04 2.627.161 2.537-1.827-.078-1.754-.422-2.99-1.127-4.057-.83-1.255-2.182-2.223-3.672-2.629-.805-.22-2.527-.306-3.298-.166zm35.105.056c-1.978.368-3.926 1.715-4.751 3.284-.799 1.521-.773 1.166-.753 10.204.016 7.257.039 8.223.212 8.826.593 2.075 2.091 3.606 4.333 4.429.777.285.984.31 2.627.311 1.525.001 1.899-.036 2.588-.256 2.038-.652 3.629-2.133 4.342-4.044.258-.69.259-.71.291-8.933.022-5.66-.008-8.433-.095-8.856-.465-2.263-2.441-4.21-4.92-4.848-1.049-.27-2.771-.322-3.874-.117zm-64.682.428c-.105.107-.138 3.164-.138 13.056 0 11.839.016 12.932.19 13.107.17.173.601.187 4.342.146 3.586-.04 4.24-.073 4.786-.252 2.318-.758 3.996-2.437 4.54-4.544.206-.8.244-4.55.054-5.382-.3-1.314-1.42-2.81-2.504-3.347l-.499-.246.42-.2c.637-.306 1.386-1.133 1.808-1.998l.38-.777.035-2.107c.028-1.669-.004-2.262-.154-2.849-.569-2.229-2.41-4.03-4.667-4.568-.964-.23-8.371-.263-8.593-.04zm16.255.133c-.157.241-.173 1.722-.146 13.073.03 12.52.035 12.805.253 12.966.175.13.707.165 2.438.165 2.158 0 2.22-.006 2.394-.258.16-.23.179-1.654.179-12.98 0-11.327-.02-12.75-.18-12.98-.174-.252-.232-.259-2.47-.259-2.276 0-2.292.002-2.468.273zm35.273-.12c-.087.107-.135 3.16-.158 10.19-.035 10.63-.021 10.359-.552 11.104-.317.444-1.002.766-1.645.772-.809.007-1.328-.19-2.113-.806-.386-.302-.758-.505-.892-.485-.131.019-.697.607-1.309 1.359-1.011 1.241-1.075 1.352-1.015 1.742.049.314.229.573.735 1.055 1.283 1.222 2.732 1.742 4.853 1.742 3.332 0 5.883-1.769 6.868-4.762.197-.596.213-1.332.245-11.075.031-9.294.016-10.466-.144-10.712-.179-.276-.185-.277-2.463-.277-1.746 0-2.314.036-2.41.153zm24.841.008c-.097.117-.123 2.974-.1 10.895l.031 10.736.507 1.036c.913 1.866 2.75 3.346 4.74 3.82.942.224 2.827.224 3.77 0 1.989-.474 3.826-1.954 4.739-3.82l.508-1.036.031-10.736c.023-7.921-.004-10.778-.101-10.895-.103-.127-.615-.16-2.411-.16-2.226 0-2.284.006-2.459.258-.159.228-.179 1.387-.179 10.176 0 7.2-.037 10.042-.134 10.37-.18.607-.795 1.221-1.383 1.381-.935.254-1.912-.294-2.331-1.308-.156-.379-.178-1.66-.178-10.43 0-6.67-.04-10.073-.119-10.223-.112-.21-.264-.225-2.46-.225-1.846 0-2.367.034-2.471.16zm17.458.032c-.132.16-.158 2.326-.158 13.073 0 12.617.005 12.885.224 13.046.174.13.707.165 2.437.165 2.159 0 2.22-.006 2.394-.258.155-.224.179-.912.179-5.168v-4.909h1.603l.286.958c.157.527.805 2.781 1.441 5.01.635 2.229 1.214 4.123 1.285 4.21.101.123.627.157 2.393.157 2.387 0 2.54-.032 2.54-.536 0-.141-.668-2.443-1.484-5.115s-1.546-5.073-1.623-5.335l-.141-.477.917-.916c1.103-1.105 1.68-2.178 1.929-3.592.208-1.18.211-3.794.005-4.962-.456-2.578-2.455-4.698-5.063-5.367-.55-.142-1.508-.177-4.846-.177-3.729 0-4.176.02-4.318.193zm17.292-.053c-.105.107-.138 3.178-.138 13.118 0 12.713.005 12.981.223 13.099.129.07 1.066.12 2.229.12 1.678 0 2.031-.03 2.155-.181.161-.195.163-5.406.006-12.07-.042-1.788-.065-3.27-.052-3.292.014-.023.082.186.151.464.07.278 1.189 3.667 2.488 7.531 1.859 5.53 2.423 7.081 2.649 7.287.276.25.37.261 2.402.261 2.055 0 2.12-.007 2.294-.258.16-.23.179-1.66.179-13.056 0-11.48-.018-12.816-.18-12.98-.152-.153-.527-.183-2.297-.183-2.044 0-2.12.009-2.247.249-.125.235-.092 7.916.06 14.151.05 2.014.048 2.026-.123 1.278-.303-1.326-5.009-15.31-5.214-15.498-.163-.148-.565-.18-2.322-.18-1.499 0-2.165.041-2.263.14zm22.015.014c-.164.12-.771 2.841-2.898 12.977-1.481 7.053-2.664 12.941-2.631 13.085.06.26.07.261 2.359.261 2.056 0 2.32-.022 2.504-.208.147-.148.266-.626.413-1.655.114-.795.234-1.564.266-1.708.06-.259.077-.261 2.162-.261h2.101l.261 1.7c.193 1.26.317 1.758.477 1.92.198.2.395.215 2.485.186l2.269-.032.03-.406c.017-.224-1.159-6.102-2.614-13.064-2.021-9.674-2.691-12.691-2.841-12.803-.286-.21-4.056-.205-4.343.008zm11.9.071c-.08.151-.119 4.43-.119 13.046 0 12.274.009 12.83.211 13.014.19.174.772.192 5.967.192 5.215 0 5.772-.018 5.915-.192.241-.293.228-4.184-.014-4.34-.099-.062-1.618-.11-3.538-.111l-3.364-.002V44.366c0-7.148-.04-10.766-.119-10.916-.112-.21-.264-.225-2.469-.225-2.206 0-2.358.014-2.47.225zm-77.485 4.348c.856.66.81.195.845 8.55l.032 7.49-.262.521c-.796 1.588-2.98 1.464-3.618-.205-.195-.51-.209-1.063-.209-7.806 0-7.208.001-7.261.247-7.723.484-.908 1.031-1.237 1.959-1.18.433.027.707.123 1.006.353zm-60.172.231c.479.202.955.772 1.107 1.326.162.586.152 2.737-.014 3.298-.162.545-.733 1.082-1.33 1.25-.238.066-.886.121-1.44.122h-1.007v-6.154h1.154c.715 0 1.297.06 1.53.158zm94.321-.002c.494.209 1.088.907 1.176 1.383.039.211.055 1.248.035 2.305-.036 1.857-.048 1.938-.343 2.388-.449.684-.958.883-2.426.945l-1.237.052v-7.229h1.212c.757 0 1.351.058 1.583.157zm34.47 9.74c.319 2.09.58 3.853.58 3.92 0 .075-.529.119-1.438.119-1.368 0-1.438-.012-1.438-.236 0-.13.28-2.103.622-4.384.342-2.281.662-4.514.71-4.96l.089-.814.148 1.278c.081.703.408 2.988.727 5.078zm-128.635.664c.303.14.601.404.805.715.324.493.324.496.324 2.485 0 1.989 0 1.992-.324 2.485-.48.732-1.014.935-2.466.939l-1.179.002v-6.851l1.18.002c.908.002 1.289.053 1.66.223z" fill="#fff"/></svg>
